X:521
T:Tan buen ganadico
Z:Jack Campin, http://www.campin.me.uk/
F:Jack Campin's Nine-Note Tunebook
% last edit 03-02-2013
C:Juan del Encina 
N:Version by Eduardo Paniagua: http://www.youtube.com/watch?v=4LOfxtdknSw
M:3/2
L:1/2
Q:3/2=80
K:GMin
  B| d> d c| A> G A|B> G  A|  ^F> F G |A> G ^F|G2 G-|G z||
|:A| B> G A|^F> F G|A> G ^F|[1 G> G  :|\
                            [2 G2   G-|G  z  ||
|:B| d> d c| A> G A|B> G  A|  ^F> F G |A> G ^F|G2 G-|G z:|

